X:147
T:Off to California
R:Hornpipe
O:Ireland
M:4/4
K:G
(3DEF|\
GFGB AGED|GBdg e2ef|gfgd edBG|ABAG E2(3DEF|\
GFGB AGED|GBdg e2ef|
gfgd edBG|(3ABA G2G2::\
g2|\
gfeg f2ed|e2ef edB2|
gfgd edBG|ABAG E2(3DEF|\
GFGB AGED|GBdg e2ef|gfgd edBG|(3ABA G2 G2:|
